!!!!SEGMENT: pl-sa--305-a-vii-65--002_lechleitner-ferdinand-simon--vespere-dixit-dominus.krn
!!!cenid: 17xx:395
!!!COM: Lechleitner, Ferdinand Simon
!!!COM-rismID: pe30001903
!!!CDT: ~1700-~1800
!!!CNT:
!!!OPR: Vespere
!!!OTL: Dixit dominus
!!!OMV: 002
!!!PDT:
!!!AGN: Sacred; Vespers
!!!SMS-siglum: PL-SA
!!!SMS-shelfmark: 305/A VII 65
!!!SMS-shelfwork: 001-002 M
!!!NIFC-rismSourceID: 1001077319
!!!NIFC-islandoraID:
!!!URL-pdf-islandora:
!!!URL-scan: https://bc.bdsandomierz.pl/dlibra/publication/1610/edition/1578/content @EN{Scan on Cyfrowa Biblioteka Diecezjalna w Sandomierzu} @PL{Skany w portalu Cyfrowa Biblioteka Diecezjalna w Sandomierzu}
!!!ONB-nifc: UWAGA: części Vespere: Domine ad adiuvandum, Dixit dominus, Confitebor, Beatus vir, Laudate pueri, Credidi, Magnificat
!!!AIN: 1 alto 3 empty 1 organ 1 tenor 2 violn 1 vox
!!!key:
**kern	**fb	**kern	**kern	**kern	**text	**kern	**text	**kern	**text	**kern	**text	**kern	**kern
*part9	*	*part8	*part7	*part6	*part6	*part5	*part5	*part4	*part4	*part3	*part3	*part2	*part1
*group	*	*group3	*group3	*group2	*group2	*group2	*group2	*group2	*group2	*group2	*group2	*group1	*group1
*staff9	*	*staff8	*staff7	*staff6	*staff6	*staff5	*staff5	*staff4	*staff4	*staff3	*staff3	*staff2	*staff1
*Iorgan	*	*Ivioln	*Ivioln	*Iempty	*	*Itenor	*	*Ialto	*	*Ivox	*	*Iempty	*Iempty
*I"Organo	*	*I"Violino Secundo	*I"Violino Primo	*I"Baſso	*	*I"Tenore	*	*I"Alto	*	*I"Canto	*	*I"Clarino 2do	*I"Clarino 1mo
*I'Org.	*	*I'Vl. 2	*I'Vl. 1	*I'B	*	*I'T	*	*I'A	*	*I'C	*	*I'Clno 2	*I'Clno 1
*clefF4	*	*clefG2	*clefG2	*clefF4	*	*clefC4	*	*clefC3	*	*clefC1	*	*clefG2	*clefG2
*k[]	*	*k[]	*k[]	*k[]	*	*k[]	*	*k[]	*	*k[]	*	*k[]	*k[]
*C:	*	*C:	*C:	*C:	*	*C:	*	*C:	*	*C:	*	*C:	*C:
*M4/4	*	*M4/4	*M4/4	*M4/4	*	*M4/4	*	*M4/4	*	*M4/4	*	*M4/4	*M4/4
*met(c|)	*	*met(c|)	*met(c|)	*met(c|)	*	*met(c|)	*	*met(c|)	*	*met(c|)	*	*met(c|)	*met(c|)
=1	=1	=1	=1	=1	=1	=1	=1	=1	=1	=1	=1	=1	=1
*	*above	*	*	*	*	*	*	*	*	*	*	*	*
!	!	!	!	!	!	!	!	!	!	!LO:TX:a:t=alle	!	!LO:TX:a:t=vivace	!LO:TX:a:t=vivace
!LO:TX:b:i:t=Dixit dominus	!	!	!LO:TX:b:t=Dixit	!	!	!	!	!	!	!	!	!LO:TX:b:t=Dixit	!LO:TX:b:t=Dixit
4c\	.	4gg\	4ccc\	4c\	Di-	4c\	Di-	4g\	Di-	4ee\	Di-	4ee\	4gg\
4G\	.	4gg\	4bb\	4G\	-xit	4d\	-xit	4b\	-xit,	4gg\	-xit	4dd\	4gg\
4c\	.	8ee\L	8ccc\L	8.c\	do-	8.c\	do-	8.g\	do-	8.ee\	do-	8.ee\L	8.gg\L
.	.	8cc\J	8gg\	.	.	.	.	.	.	.	.	.	.
.	.	.	.	16c\	-mi-	16c\	-mi-	16g\	-mi-	16ee\	-mi-	16ee\Jk	16gg\Jk
!	!	!	!	!	!	!	!	!	!	!	!	!LO:SIC:s=4cc	!
4C/	.	8g/L	8ee\	4c\	-nus	4c\	-n(us):	4g\	-nus	4ee\	-nus,	4dd\	4ee\
.	.	8e/J	8cc\J	.	.	.	.	.	.	.	.	.	.
=2	=2	=2	=2	=2	=2	=2	=2	=2	=2	=2	=2	=2	=2
2r	.	2r	2r	2r	.	2r	.	8e\	do-	8cc\	do-	2r	2r
.	.	.	.	.	.	.	.	16e\	-mi-	16cc\|	-mi-	.	.
.	.	.	.	.	.	.	.	16f\	-no	16dd\|	-no,	.	.
*	*	*	*	*	*	*	*	*	*ij	*	*	*	*
.	.	.	.	.	.	.	.	8g\	do-	8ee\	do-	.	.
.	.	.	.	.	.	.	.	16f\	-mi-	16dd\	-mi-	.	.
.	.	.	.	.	.	.	.	16e\	-no,	16cc\	-no,	.	.
*	*	*	*	*	*	*	*	*	*Xij	*	*	*	*
8G\L	.	8dd\L	8ddd\L	8G\	Se-	8d\	Se-	8d\	me-	8b\	me-	8g/L	8dd\L
8G\J	.	16dd\L	16ddd\L	8G\	-de	8d\	-de	8d\	-o,	8b\	-o,	16g/L	16dd\L
.	.	16dd\JJ	16ddd\JJ	.	.	.	.	.	.	.	.	16g/JJ	16dd\JJ
8G\L	.	16dd\LL	16ddd\LL	8G\	Se-	8B\	Se-	8g\	Se-	8dd\	Se-	16g/LL	16dd\LL
.	.	16b\	16bb\	.	.	.	.	.	.	.	.	16g/	16dd\
16G\L	.	16cc\	16ccc\	16G\	-de	16d\	-de	16g\	-de	16b\	-de	16g/	16dd\
!	!	!	!	!	!	!LO:SIC:s=a	!	!	!	!	!	!	!
!	!	!	!	!LO:LB:g=original	!	!	!	!	!	!	!	!	!
16G\JJ	.	16dd\JJ	16ddd\JJ	16G\	ad	16B\	ad	16g\	a	16dd\	a	16g/JJ	16dd\JJ
!	!	!LO:LB:g=original	!	!	!	!	!	!	!	!	!	!	!
=3	=3	=3	=3	=3	=3	=3	=3	=3	=3	=3	=3	=3	=3
!LO:TX:a:t=P:problem=mixed beam	!	!	!	!	!	!	!	!	!	!	!	!	!
8E\L	X 6	8ee\L	8ccc\L	8E\	dex-	8c\	dex-	8g\	dex-	8ee\	dex-	8cc\L	8ee\L
!	!	!	!	!	!	!	!	!LO:SIC:s=-tris	!	!	!	!	!
8C\	.	8ee\	8gg\J	8C/	-tris	8c\	-tris	8g\	-trix	8ee\	-tris	16cc\L	16ee\L
.	.	.	.	.	.	.	.	.	.	.	.	16g\JJ	16dd\JJ
!	!	!	!	!	!	!	!	!	!	!	!	!LO:LB:g=original	!
!	!	!	!	!	!	!	!	!	!	!LO:LB:g=original	!	!	!
!	!	!	!	!	!	!LO:LB:g=original	!	!LO:LB:g=original	!	!	!	!	!
!	!	!	!	!LO:TX:a:t=P:problem=mixed beam	!	!	!	!	!	!	!	!	!
8G\	5 4	8.dd\	8.gg\L	8G\L	me-	(>8.c\L	me-	4g\	me-	8dd\L	me-	8g/	8.dd\L
8GG/J	X 3	.	.	8GG/J	.	.	.	.	.	(>16ee\L	.	4g/	.
.	.	16dd\Jk	16gg\Jk	.	.	16B\Jk)	.	.	.	16dd\JJ)	.	.	16cc\Jk
4C/	.	8ee\	8gg\	8C/	-is	8c\	-is	8g\	-is	8cc\	-is,	.	8cc\
.	.	8r	8r	8r	.	8r	.	8r	.	16gg\	do-	8e/	8r
.	.	.	.	.	.	.	.	.	.	16ff\	-nec,	.	.
4E\	X 6	4r	4r	4r	.	4r	.	4r	.	16ee\	po-	4r	4r
.	.	.	.	.	.	.	.	.	.	16dd\	-nam,	.	.
.	.	.	.	.	.	.	.	.	.	16cc\	i-	.	.
.	.	.	.	.	.	.	.	.	.	16b\	-ni,-	.	.
!LO:LB:g=original	!	!	!LO:LB:g=original	!	!	!	!	!	!	!	!	!	!LO:LB:g=original
=4	=4	=4	=4	=4	=4	=4	=4	=4	=4	=4	=4	=4	=4
!LO:TX:a:t=P:problem=mixed beam	!	!	!	!	!	!	!	!	!	!	!	!	!
8F\L	.	00r	00r	2r	.	00r	.	1r	.	(>16a\LL	-mi-	00r	00r
.	.	.	.	.	.	.	.	.	.	16b\JJ)	.	.	.
8D\	.	.	.	.	.	.	.	.	.	(>16cc\LL	-cos,	.	.
.	.	.	.	.	.	.	.	.	.	16dd\JJ)	.	.	.
8G\	X 6	.	.	.	.	.	.	.	.	8ee\L	-tu-	.	.
8GG/J	5 4	.	.	.	.	.	.	.	.	(>16dd\L	.	.	.
.	X 3	.	.	.	.	.	.	.	.	16cc\JJ)	.	.	.
!LO:TX:a:t=P:problem=mixed beam	!	!	!	!	!	!	!	!	!	!	!	!	!
8C/L	.	.	.	8r	.	.	.	.	.	8cc\	-os,	.	.
8c\	.	.	.	8c\	Vir-	.	.	.	.	8ee\	Sca-	.	.
8G\	.	.	.	8B\	-gam	.	.	.	.	8dd\	-bel-	.	.
8A\J	X 6	.	.	8A\	vir-	.	.	.	.	8cc\	-lum,	.	.
=5	=5	=5	=5	=5	=5	=5	=5	=5	=5	=5	=5	=5	=5
!LO:TX:a:t=P:problem=mixed beam	!	!	!	!	!	!	!	!	!	!	!	!	!
8B\L	X 6	.	.	16G\LL	-tu-	.	.	2r	.	8dd\	pe-	.	.
.	.	.	.	16B\JJ	.	.	.	.	.	.	.	.	.
8G\	.	.	.	16A\LL	-tis	.	.	.	.	16cc\	-dum,	.	.
.	.	.	.	16G\JJ	.	.	.	.	.	16b\	tu-	.	.
8d\	.	.	.	(>8.G\L	tu-	.	.	.	.	8b\L	-o-	.	.
*	*reverse	*	*	*	*	*	*	*	*	*	*	*	*
8D/J	X 4#	.	.	.	.	.	.	.	.	16a\L	.	.	.
*	*Xreverse	*	*	*	*	*	*	*	*	*	*	*	*
.	.	.	.	16F#X\Jk)	.	.	.	.	.	16g\JJ	.	.	.
!	!	!	!	!LO:SIC:s=-ae	!	!	!	!	!	!	!	!	!
!	!	!	!	!	!	!	!	!	!	!LO:LB:g=original	!	!	!
!LO:TX:a:t=P:problem=mixed beam	!	!	!	!	!	!	!	!	!	!	!	!	!
8G\L	.	.	.	8G\	-ae'	.	.	8r	.	4g/	-rum	.	.
8C/	X 6	.	.	8G\	e-	.	.	8d\	Te-	.	.	.	.
8BB/	.	.	.	(>16G\LL	-mit-	.	.	8d\	-cum	4r	.	.	.
.	.	.	.	16A\JJ)	.	.	.	.	.	.	.	.	.
8GG/J	.	.	.	(>16G\LL	-tet	.	.	8g\	cum	.	.	.	.
.	.	.	.	16F#\JJ)	.	.	.	.	.	.	.	.	.
!	!	!	!	!LO:LB:g=original	!	!	!	!	!	!	!	!	!
=6	=6	=6	=6	=6	=6	=6	=6	=6	=6	=6	=6	=6	=6
8C/L	.	.	.	8.E\	do-	.	.	8.g\	ci-	00r	.	.	.
8D/	.	.	.	.	.	.	.	.	.	.	.	.	.
.	.	.	.	16D\	-mi-	.	.	16f\	-pi-	.	.	.	.
8E/	X 6	.	.	8C/	-nus	.	.	8e\	-um,	.	.	.	.
8C/J	.	.	.	8c\	ex	.	.	8g\	in	.	.	.	.
8F\L	X 6	.	.	8A\	Si-	.	.	8f\	di-	.	.	.	.
8A\	.	.	.	8F\	-on	.	.	16f\	-e	.	.	.	.
.	.	.	.	.	.	.	.	16g\	vir-	.	.	.	.
8F\	X 6	.	.	8d\	do-	.	.	16a\LL	-tu-	.	.	.	.
.	.	.	.	.	.	.	.	16g\JJ	.	.	.	.	.
8D\J	x 7	.	.	8c\	-mi-	.	.	(>16f\LL	-tis	.	.	.	.
.	.	.	.	.	.	.	.	16e\JJ)	.	.	.	.	.
=7	=7	=7	=7	=7	=7	=7	=7	=7	=7	=7	=7	=7	=7
8G\L	.	.	.	8.B\L	-na-	.	.	8d\	tu-	.	.	.	.
!	!	!	!	!	!	!	!	!LO:SIC:s=-ae	!	!	!	!	!
!	!	!	!	!	!	!	!	!LO:SIC:s=pae-	!	!	!	!	!
8D\	X #	.	.	.	.	.	.	8d\	-ae,	.	.	.	.
.	.	.	.	16A\Jk	.	.	.	.	.	.	.	.	.
8E\	X 6	.	.	(>16G\LL	-re	.	.	8g\	in	.	.	.	.
.	.	.	.	16B\JJ)	.	.	.	.	.	.	.	.	.
8C\J	X 5	.	.	(16A\LL	in	.	.	8e\	splen-	.	.	.	.
.	.	.	.	16G\JJ)	.	.	.	.	.	.	.	.	.
!	!	!	!	!	!	!	!	!LO:LB:g=original	!	!	!	!	!
8D\L	.	.	.	8.F#X\	me-	.	.	8.a\	-do-	.	.	.	.
8E\	.	.	.	.	.	.	.	.	.	.	.	.	.
.	.	.	.	16E\	-di-	.	.	16g\	-ri-	.	.	.	.
8F#X\	X 6	.	.	8D\	-o	.	.	8a\	-bus,	.	.	.	.
8G\J	.	.	.	8G\	i-	.	.	8b\	San-	.	.	.	.
=8	=8	=8	=8	=8	=8	=8	=8	=8	=8	=8	=8	=8	=8
8BB/L	.	0r	0r	8E\	-ni-	0r	.	(>8.g\L	-cto-	.	.	0r	0r
8AA/	.	.	.	8F#X\	-mi-	.	.	.	.	.	.	.	.
.	.	.	.	.	.	.	.	16a\Jk)	.	.	.	.	.
!	!	!	!	!LO:LB:g=original	!	!	!	!	!	!	!	!	!
8BB/	.	.	.	(>16G\LL	-co-	.	.	8b\	-rum,	.	.	.	.
.	.	.	.	16A\JJ)	.	.	.	.	.	.	.	.	.
8GG/J	.	.	.	16B\	-rum	.	.	8g\	San-	.	.	.	.
.	.	.	.	16c\	tu-	.	.	.	.	.	.	.	.
!LO:TX:a:t=P:problem=mixed beam	!	!	!	!LO:TX:a:t=P:problem=mixed beam	!	!	!	!	!	!	!	!	!
8D\L	5 4	.	.	8d\L	-o-	.	.	(>8.g\L	-cto-	.	.	.	.
8DD/J	X #	.	.	8D/J	-rum	.	.	.	.	.	.	.	.
.	.	.	.	.	.	.	.	16f#X\Jk)	.	.	.	.	.
!LO:TX:a:t=P:problem=mixed beam	!	!	!	!	!	!	!	!	!	!	!	!	!
8GG/L	x #:	.	.	4G	.	.	.	8g\	-rum	.	.	.	.
16E\L	.	.	.	.	.	.	.	8a#X\	ex	.	.	.	.
16D\JJ	.	.	.	.	.	.	.	.	.	.	.	.	.
=9	=9	=9	=9	=9	=9	=9	=9	=9	=9	=9	=9	=9	=9
8C/L	X 6	.	.	1r	.	.	.	8a\	u-	.	.	.	.
8GG#X/	X 6	.	.	.	.	.	.	16a\	-te-	.	.	.	.
.	.	.	.	.	.	.	.	16b\	-ro	.	.	.	.
8AA/	X 6n	.	.	.	.	.	.	8cc\	an-	.	.	.	.
8D/J	X 5	.	.	.	.	.	.	16b\	-te	.	.	.	.
.	.	.	.	.	.	.	.	16a\	lu-	.	.	.	.
!LO:LB:g=original	!	!	!	!	!	!	!	!	!	!	!	!	!
!LO:TX:a:t=P:problem=mixed beam	!	!	!	!	!	!	!	!	!	!	!	!	!
8E\L	X #	.	.	.	.	.	.	8g#X\	-ci-	.	.	.	.
8AA/	X n	.	.	.	.	.	.	16a\	-fe-	.	.	.	.
!	!	!	!	!	!	!	!	!LO:LB:g=original	!	!	!	!	!
.	.	.	.	.	.	.	.	16e\	-rum	.	.	.	.
8E\	6	.	.	.	.	.	.	8c/	ge-	.	.	.	.
.	5 4	.	.	.	.	.	.	.	.	.	.	.	.
8EE/J	X 3	.	.	.	.	.	.	16B/	-nu-	.	.	.	.
.	.	.	.	.	.	.	.	16A/	-i	.	.	.	.
=10	=10	=10	=10	=10	=10	=10	=10	=10	=10	=10	=10	=10	=10
!LO:TX:a:t=P:problem=mixed beam	!	!	!	!	!	!	!	!	!	!	!	!	!
8AA/L	.	8r	8r	8r	.	8r	.	8A/	te'	8r	.	8r	8r
8A\	X 4	8ee\	8aa\L	8A\	Ju-	8c\	Ju-	8a\	ju-	8ee\	Ju-	8e/L	8e/L
8A\	X #	8aa\L	8ccc\	8A\	-ra-	8e\	-ra-	8a\	-ra-	8cc\	-ra-	8e/	8e/
8E\J	.	16gg#X\L	8aa\J	8E\	-vit	8e\	-vit	8g#X\	-vit	8b\	-vit,	8e/J	8e/J
.	.	16ff\JJ	.	.	.	.	.	.	.	.	.	.	.
8C/L	X 6	8ee\L	8.aa\L	8C/	do-	8.e\	do-	8.a\	do-	8.cc\	do-	8e/L	8e/L
8BB/	X 6	8b\	.	8BB/	-mi-	.	.	.	.	.	.	16e/L	16e/
!	!	!	!	!	!	!LO:TX:a:t=P:problem=nieczytelny dźwięk	!	!	!	!	!	!	!
.	.	.	16gg#X\Jk	.	.	16e\	-mi-	16b\	-mi-	16dd\	-mi-	16e/JJ	16e/J
8C/	X 6	8ee\	8aa\L	8C/	-n(us)	8e\	-nus	8a\	-nus	8cc\	-nus,	16e/LL	16e/L
.	.	.	.	.	.	.	.	.	.	.	.	16e/	16e/
8AA/J	.	8ee\J	8aa\J	8AA/	et	8e\	et	8a\	et	8cc\	et	16e/	16e/
.	.	.	.	.	.	.	.	.	.	.	.	16e/JJ	16e/J
=11	=11	=11	=11	=11	=11	=11	=11	=11	=11	=11	=11	=11	=11
!	!	!LO:TX:a:t=P:problem=mixed beam	!	!	!	!	!	!	!	!	!	!	!
!	!	!	!LO:TX:a:t=P:problem=mixed beam	!	!	!	!	!	!	!	!	!	!
4E\	X #	16ee\LL	16gg#X\LL	4E\	no(n),	4e\	no(n)	16g#X\LL	non	(>16b\LL	non	4e/	4e/
.	.	16e/	16e/	.	.	.	.	16f#X\	.	16a\)	.	.	.
.	.	16e/	16e/	.	.	.	.	16g#\	.	16b\	.	.	.
.	.	16e/JJ	16e/JJ	.	.	.	.	16a\JJ	.	16cc\JJ	.	.	.
!	!	!LO:TX:a:t=P:problem=mixed beam	!LO:TX:a:t=P:problem=mixed beam	!	!	!	!	!	!	!	!	!	!
8r	X 5	8e/L	8e/L	8r	.	8r	.	8f#\	no(n)	8b\	non,	4r	4r
8E\	6 #	16b\L	8gg#X\J	8E\	no(n)	8e\	no(n)	8g#X\	no(n)	(>16b\LL	non,	.	.
.	.	16b\JJ	.	.	.	.	.	.	.	16cc\JJ)	.	.	.
!	!	!	!	!	!	!	!	!LO:SIC:s=poe-	!	!LO:SIC:s=poe-	!	!	!
8F#X\L	6 #	8dd\L	8aa\L	8F#X\	pe-	8d\	pe-	8a\	pe-	8dd\	pe-	2r	2r
8E\	6	8gg#X\	8gg#X\	8E\	-ni-	8e\	-ni-	8e\	-ni-	8cc\	-ni-	.	.
8F#X\	6 #	8ff#X\	8aa\	8F#X\	-te-	8d\	-te-	8a\	-te-	8dd\	-te-	.	.
8G#X\J	6 #	8ee\J	8bb\J	8G#X\	-bit	8B\	-bit	8e\	-bit	(>16ee\LL	-bit	.	.
.	.	.	.	.	.	.	.	.	.	16b\JJ)	.	.	.
!	!	!	!	!LO:LB:g=original	!	!	!	!LO:LB:g=original	!	!	!	!	!
=12	=12	=12	=12	=12	=12	=12	=12	=12	=12	=12	=12	=12	=12
!	!	!	!LO:TX:a:t=P:problem=mixed beam	!	!	!	!	!	!	!	!	!	!
4A\	X n	16ee\LL	16aa\LL	8A\	e-	8e\	e-	16a\LL	e-	16cc\LL	e-	4r	4r
.	.	16a/	16a/	.	.	.	.	16g#X\	.	16b\	.	.	.
.	.	16a/	16a/	8A\	-um	8e\	-um	16a\	.	16cc\	.	.	.
.	.	16a/JJ	16a/JJ	.	.	.	.	16b\JJ	.	16dd\JJ	.	.	.
!	!	!	!LO:TX:a:t=P:problem=mixed beam	!	!	!	!	!	!	!	!	!	!
8r	.	8a\L	8a/L	8r	.	8r	.	8a\	-um	8cc\	-um	8r	8r
8A\	.	8cc\J	8ee\J	8A\	tu	8c\	tu	8r	.	8r	.	8cc\	8ee\
!	!	!	!	!	!	!	!	!	!	!LO:LB:g=original	!	!	!
!	!	!	!	!	!	!LO:LB:g=original	!	!	!	!	!	!	!
8F\L	X 6	16dd\LL	16ff\LL	8F\	es	8A/	es	8.a\	Do-	8.dd\	do-	8ff\L	8aa\L
.	.	16dd\	16ff\	.	.	.	.	.	.	.	.	.	.
8D\	.	16dd\	16ff\	8D/	Sa-	8d\	Sa-	.	.	.	.	8ff\	8aa\
.	.	16dd\JJ	16ff\JJ	.	.	.	.	16a\	-mi-	16dd\	-mi-	.	.
8G\	.	16b\LL	16dd\LL	8G\	-cer-	8d\	-cer-	8gn\	-nus	8b\	-nus,	8dd\	8gg\
.	.	16g\	16b\	.	.	.	.	.	.	.	.	.	.
8G\J	.	16g\	16b\	8G\	-dos	8d\	-dos	8d\	a	8g/	a	8dd\J	8gg\J
.	.	16g\JJ	16b\JJ	.	.	.	.	.	.	.	.	.	.
=13	=13	=13	=13	=13	=13	=13	=13	=13	=13	=13	=13	=13	=13
8E\L	X 6	16cc\LL	16ee\LL	8E\	in	8c\	in	8g\	dex-	8cc\	dex-	8ee\L	8gg\L
.	.	16cc\	16ee\	.	.	.	.	.	.	.	.	.	.
!	!	!	!	!LO:SIC:s=ae-	!	!	!	!	!	!	!	!	!
8C\	.	16cc\	16ee\	8C/	ae-	8c\	ae-	8g\	-tris	8cc\	-tris,	8ee\	8gg\
.	.	16cc\JJ	16ee\JJ	.	.	.	.	.	.	.	.	.	.
!	!	!LO:LB:g=original	!	!	!	!	!	!	!	!	!	!	!
8F\	.	16a/LL	16cc\LL	8F\	-ter-	8c\	-ter-	8f\	tu-	8a/	tu-	8cc\	8ff\
.	.	16f/	16a\	.	.	.	.	.	.	.	.	.	.
8F\J	.	16f/	16a\	16F\	-num	16c\	-num	16c/	-is	16f/	-is	8cc\J	8ff\J
.	.	16f/JJ	16a\JJ	16F\	Se-	16c\	Se-	16c/	con-	16f/	con-	.	.
!	!	!	!	!	!	!	!	!	!	!	!	!LO:TX:a:t=P:problem=mixed beam	!LO:TX:a:t=P:problem=mixed beam
8D/L	X 6	16b\LL	16dd\LL	8D/	-cu(n)-	8B\	-cun-	8f\	-fre-	8b\	-fre-	8dd\L	8ff\L
.	.	16dd\	16ff\	.	.	.	.	.	.	.	.	.	.
*	*reverse	*	*	*	*	*	*	*	*	*	*	*	*
!	!	!	!	!	!	!	!	!	!	!LO:SIC:s=-git	!	!	!
8BB/	X 7#:	16dd\	16ff\	8BB/	-du(m)	8B\	-dum	16f\	-git	16b\	-it	8dd\	8ff\
*	*Xreverse	*	*	*	*	*	*	*	*	*	*	*	*
.	.	16dd\JJ	16ff\JJ	.	.	.	.	16f\	in	16a\	in	.	.
8E/	.	8b\L	8ee\L	8.E\	or-	8.B\	or-	8d\	di-	8g#X/	di-	8ee\	8ee\
8E/J	.	8ee\J	8gg#X\J	.	.	.	.	8d\	-e	8e/	-e	8e/J	8e/J
.	.	.	.	16D\	-di-	16B\	-di-	.	.	.	.	.	.
!	!	!	!LO:LB:g=original	!	!	!	!	!	!	!	!	!	!
=14	=14	=14	=14	=14	=14	=14	=14	=14	=14	=14	=14	=14	=14
!LO:TX:a:t=P:problem=mixed beam	!	!	!	!	!	!	!	!	!	!	!	!	!
8C/L	X 6	16ee\LL	8aa\L	8C/	-nem	8c\	-nem	8e\	i-	(>16a\LL	i-	8e/L	8e/L
.	.	16dd\	.	.	.	.	.	.	.	16b\JJ)	.	.	.
!	!	!	!	!	!	!	!	!LO:SIC:s=-rae	!	!LO:SIC:s=-rae	!	!	!
8AA/	.	16cc\	8aa\	8AA/	mel-	8e\	Mel-	8a\	-rae	(>16cc\LL	-re,	16e/L	16e/L
.	.	16dd\JJ	.	.	.	.	.	.	.	16b\JJ)	.	16e/JJ	16e/JJ
*	*reverse	*	*	*	*	*	*	*	*	*	*	*	*
8E\	X 4#	8b\L	8aa\	8.E\	-chi-	8e\	-chi-	8a\	su-	8cc\	su-	16e/LL	8e/L
*	*Xreverse	*	*	*	*	*	*	*	*	*	*	*	*
.	.	.	.	.	.	.	.	.	.	.	.	16e/	.
!	!	!	!	!	!	!	!	!	!	!LO:SIC:s=-ae	!	!	!
8EE/J	.	8ee\J	8gg#X\J	.	.	8B\	-se-	8g#X\	-ae	(>16b\LL	-ae	16e/	16e/L
!	!	!	!	!LO:LB:g=original	!	!	!	!	!	!	!	!	!
.	.	.	.	16E\	-se-	.	.	.	.	16a\JJ)	.	16e/JJ	16e/JJ
!	!	!	!	!	!	!	!	!LO:LB:g=original	!	!	!	!	!
!	!	!LO:TX:a:t=P:problem=mixed beam	!LO:TX:a:t=P:problem=mixed beam	!	!	!	!	!	!	!	!	!	!
4AA/	.	16ee\LL	16aa\LL	4AA/	-dech	4c\	-dech,	8a\	re-	8a\	re-	4e/	4e/
.	.	16a/	16a/	.	.	.	.	.	.	.	.	.	.
.	.	16e/	16e/	.	.	.	.	8a\	-ges	8a\	-ges	.	.
.	.	16c/JJ	16c/JJ	.	.	.	.	.	.	.	.	.	.
!	!	!	!	!	!	!	!	!	!	!LO:LB:g=original	!	!	!
4r	.	4A/	4A/	4r	.	8c\	Ju-	4r	.	8.ee\	Ju-	4r	4r
.	.	.	.	.	.	8B\	-di-	.	.	.	.	.	.
.	.	.	.	.	.	.	.	.	.	16dd\	-di-	.	.
!	!	!	!	!	!	!LO:LB:g=original	!	!	!	!	!	!LO:LB:g=original	!
=15	=15	=15	=15	=15	=15	=15	=15	=15	=15	=15	=15	=15	=15
!LO:TX:a:t=P:problem=mixed beam	!	!	!	!	!	!	!	!	!	!	!	!	!
8AA/L	X 6#	00r	00r	00r	.	8A/	-ca-	1r	.	8cc\	-ca-	00r	00r
8E\	X 6	.	.	.	.	16G#X/	-bit	.	.	16b\	-bit	.	.
.	.	.	.	.	.	16A/	in	.	.	16cc\	in	.	.
8C\	.	.	.	.	.	8A/	na-	.	.	8a\	na-	.	.
8D\J	X 5	.	.	.	.	16d\LL	-ti-	.	.	(>16b\L	-ti-	.	.
.	.	.	.	.	.	16c\JJ	.	.	.	16a\)J	.	.	.
!LO:LB:g=original	!	!	!	!	!	!	!	!	!	!	!	!	!
8E\L	.	.	.	.	.	8.B\	-o-	.	.	8.g#X/	-o-	.	.
8F#X\	X 6#	.	.	.	.	.	.	.	.	.	.	.	.
.	.	.	.	.	.	16A/	-ni-	.	.	16f#X/	-ni-	.	.
8G#X\	X 6#	.	.	.	.	8G#X/	-bus	.	.	8e/	-bus,	.	.
8E\J	.	.	.	.	.	8G#/	im	.	.	8b\	im-	.	.
=16	=16	=16	=16	=16	=16	=16	=16	=16	=16	=16	=16	=16	=16
!LO:TX:a:t=P:problem=mixed beam	!	!	!	!	!	!	!	!	!	!	!	!	!
8A\L	X 6	.	.	.	.	8A/	ple-	4r	.	8cc\	-ple-	.	.
8F\	X 3	.	.	.	.	16A/	-bit	.	.	16cc\	-bit	.	.
.	.	.	.	.	.	16c\	ru-	.	.	16dd\	ru-	.	.
8G\	X 4	.	.	.	.	(>8c\L	-i-	16g\LL	de	8ee\L	-i-	.	.
.	.	.	.	.	.	.	.	16a\JJ	.	.	.	.	.
!	!	!	!	!	!	!	!	!LO:SIC:s=-tor-	!	!	!	!	!
8GG/J	X 3	.	.	.	.	8B\J)	.	16g\LL	to-	(>16dd\L	.	.	.
.	.	.	.	.	.	.	.	16f\JJ	.	16cc\JJ)	.	.	.
4C/	.	.	.	.	.	8c\	-nas'	4e\	-ren-	8cc\	-nas,	.	.
.	.	.	.	.	.	16e\	Con-	.	.	16cc\	Con-	.	.
.	.	.	.	.	.	16d\	-qua-	.	.	16b\	-qua-	.	.
!	!	!	!	!	!	!LO:SIC:s=-ssa-	!	!	!	!LO:SIC:s=-ssa-	!	!	!
8r	.	.	.	.	.	8e\	-sa-	8e\	-te	8cc\	-sa-	.	.
8C/	.	.	.	.	.	8c\	-bit	8g\	in	8cc\	-bit	.	.
!	!	!	!	!	!	!LO:LB:g=original	!	!	!	!LO:LB:g=original	!	!	!
=17	=17	=17	=17	=17	=17	=17	=17	=17	=17	=17	=17	=17	=17
8GG/L	.	.	.	.	.	8.d\	Ca-	8g\	vi-	8.b\	Ca-	.	.
8AA/	.	.	.	.	.	.	.	8c/	-a	.	.	.	.
.	.	.	.	.	.	16c\	-pi-	.	.	16a\	-pi-	.	.
8BB/	X 6	.	.	.	.	8B\	-ta	8f\L	bi-	8g/	-ta	.	.
8C/J	6 3	.	.	.	.	8e\	in	(>16e\L	.	8b\	in	.	.
.	.	.	.	.	.	.	.	16d\JJ)	.	.	.	.	.
!LO:TX:a:t=P:problem=mixed beam	!	!	!	!	!	!	!	!	!	!	!	!	!
8F\L	.	.	.	.	.	8c\	ter-	8d\	-bet'	8a\	ter-	.	.
8D\	.	.	.	.	.	16A\	-ra	8a\	pro-	16dd\	-ra	.	.
.	.	.	.	.	.	16d\	mul-	.	.	16cc\	mul-	.	.
8G\	.	.	.	.	.	4d\	-to-	16g\LL	-pte-	4b\	-to-	.	.
.	.	.	.	.	.	.	.	16f\JJ	.	.	.	.	.
8GG/J	.	.	.	.	.	.	.	16e\	-re-	.	.	.	.
.	.	.	.	.	.	.	.	16d\	-a	.	.	.	.
=18	=18	=18	=18	=18	=18	=18	=18	=18	=18	=18	=18	=18	=18
4C/	.	.	.	.	.	4e\	-rum	16c\LL	e-	4cc\	-rum	.	.
.	.	.	.	.	.	.	.	16d\	.	.	.	.	.
.	.	.	.	.	.	.	.	16e\	.	.	.	.	.
.	.	.	.	.	.	.	.	16f\JJ	.	.	.	.	.
4r	.	.	.	.	.	4r	.	16g\LL	-xal-	4r	.	.	.
.	.	.	.	.	.	.	.	16a\JJ	.	.	.	.	.
!	!	!	!	!	!	!	!	!LO:LB:g=original	!	!	!	!	!
.	.	.	.	.	.	.	.	16b\LL	.	.	.	.	.
.	.	.	.	.	.	.	.	16g\JJ	.	.	.	.	.
16C/LL	.	.	.	.	.	2r	.	8cc\	-ta-	2r	.	.	.
16D/	.	.	.	.	.	.	.	.	.	.	.	.	.
16E/	.	.	.	.	.	.	.	8cc\	-bit	.	.	.	.
16F/JJ	.	.	.	.	.	.	.	.	.	.	.	.	.
16G\LL	.	.	.	.	.	.	.	16b\LL	e-	.	.	.	.
16A\	.	.	.	.	.	.	.	16a\JJ	.	.	.	.	.
16B\	.	.	.	.	.	.	.	16g\LL	-xal-	.	.	.	.
16G\JJ	.	.	.	.	.	.	.	16b\JJ	.	.	.	.	.
=19	=19	=19	=19	=19	=19	=19	=19	=19	=19	=19	=19	=19	=19
!LO:TX:a:t=P:problem=mixed beam	!	!	!	!	!	!	!	!	!	!	!	!	!
8c\L	.	2r	2r	2r	.	0r	.	16cc\LL	-ta-	0r	.	2r	2r
.	.	.	.	.	.	.	.	16g\JJ	.	.	.	.	.
8F\	X 6	.	.	.	.	.	.	16a\LL	-bit	.	.	.	.
.	.	.	.	.	.	.	.	16d\JJ	.	.	.	.	.
8G\	6 4	.	.	.	.	.	.	8e\L	ca-	.	.	.	.
8GG/J	5 3	.	.	.	.	.	.	16d\L	.	.	Si-	.	.
.	.	.	.	.	.	.	.	16c\JJ	.	.	-cut	.	.
4C/	.	16c/LL	16c/LL	8c\	Glo-	.	.	4c/	-put	.	e-	16cc\LL	16ee\LL
.	.	16d/	16d/	.	.	.	.	.	.	.	.	16ee\	16gg\
.	.	16e/	16e/	16c\	-ri-	.	.	.	.	.	-rat,	16ee\	16gg\
.	.	16f/JJ	16f/JJ	16c\	-a	.	.	.	.	.	.	16cc\JJ	16ee\JJ
!	!	!	!	!	!	!	!	!	!	!	!	!LO:TX:a:t=P:problem=mixed beam	!
4BB/	X 6	16g/LL	16g/LL	8B\	pa-	.	.	4r	.	.	in	16g/LL	16dd\LL
.	.	16a/	16a/	.	.	.	.	.	.	.	.	16ee\	16gg\
.	.	16b/	16b/	8B\	-tri	.	.	.	.	.	prin-	16ee\	16gg\
.	.	16g/JJ	16g/JJ	.	.	.	.	.	.	.	.	16g/JJ	16dd\JJ
!	!	!	!	!	!	!	!	!	!	!	!	!	!LO:LB:g=original
=20	=20	=20	=20	=20	=20	=20	=20	=20	=20	=20	=20	=20	=20
16C/LL	.	8cc\L	8cc\L	8c\	glo-	.	.	1r	.	.	-ci-	16cc\LL	16ee\LL
16D/	.	.	.	.	.	.	.	.	.	.	.	16ee\	16gg\
16E/	.	8cc\	8cc\	16c\	-ri-	.	.	.	.	.	.	16dd\	16ff\
16F/JJ	.	.	.	16c\	-a	.	.	.	.	.	-pi-	16cc\JJ	16ee\JJ
16G\LL	.	8b\	8b\	8G\	fi-	.	.	.	.	.	-o	8ee\L	8dd\L
16A\	.	.	.	.	.	.	.	.	.	.	.	.	.
!	!	!	!	!	!	!	!	!	!	!LO:LB:g=original	!	!	!
16B\	.	8dd\J	8dd\J	16G\	-li-	.	.	.	.	.	et	8ee\J	8gg\
16G\JJ	.	.	.	16G\	-o	.	.	.	.	.	.	.	.
8c\L	.	8cc\L	8cc\L	8c\	'et	.	.	.	.	.	nunc,	8cc\L	8ee\
8G\	X 6	8dd\J	8dd\J	8G\	spi-	.	.	.	.	.	et	8ee\J	8gg\J
8E\	X 6	8ee\L	8ee\L	8E\	-ri-	.	.	.	.	.	Sem-	8ee\L	8gg\L
8F\J	X 6	16dd\L	16dd\L	16F\	-tu-	.	.	.	.	.	.	16dd\L	16ff\L
.	.	16cc\JJ	16cc\JJ	16F\	-i	.	.	.	.	.	.	16cc\JJ	16ee\JJ
!LO:LB:g=original	!	!	!	!LO:LB:g=original	!	!	!	!	!	!	!	!	!
=21	=21	=21	=21	=21	=21	=21	=21	=21	=21	=21	=21	=21	=21
!LO:TX:a:t=P:problem=mixed beam	!	!	!	!LO:TX:a:t=P:problem=mixed beam	!	!	!	!	!	!	!	!	!
8G\L	5 4	8cc\L	8cc\L	8G\L	San-	4r	.	4r	.	4r	.	8g/L	8dd\L
8GG/J	X 3	8b\J	8b\J	8GG/J	.	.	.	.	.	.	.	16cc/L	16ee\L
.	.	.	.	.	.	.	.	.	.	.	.	16g/JJ	16dd\JJ
!	!	!	!	!	!	!	!	!	!	!LO:SIC:s=Sae-	!	!	!
!	!	!	!	!	!	!	!	!	!	!	!	!LO:TX:a:t=P:problem=mixed beam	!
8C/L	.	8cc\L	8cc\L	8C/	-cto'	8r	.	8r	.	8r	.	8e/L	8cc\L
16C/L	.	16ee\L	16ee\L	16C/	Si-	16c\	Si-	16g\	Si-	16ee\	Si-	16ee\L	16gg\L
16D/JJ	.	16dd\JJ	16dd\JJ	16D/	-cut	16B\	-cut	16f\	-cut	16dd	-cut	16dd\JJ	16ff\JJ
!	!	!LO:LB:g=original	!	!	!	!	!	!	!	!LO:SIC:s=Sae-	!	!	!
8E\L	X 6	8cc\L	8cc\L	8E\	e-	8c\	e-	8g\	e-	8cc\	e-	8cc\L	8gg\L
8C\	.	8ee\J	8ee\J	8C/	-rat	8c\	-rat	8g\	-rat	8ee\	-rat,	8ee\J	8gg\J
8E\	X 6	8ee\L	8ee\L	8E\	in	8c\	in	8g\	in	8ee\	in	8ee\L	8gg\L
8F\J	X 6	16dd\L	16dd\L	8F\	prin-	8A/	prin-	8a\	prin-	(>16dd\LL	prin-	16dd\L	16ff\L
.	.	16cc\JJ	16cc\JJ	.	.	.	.	.	.	16cc\JJ)	.	16cc\JJ	16ee\JJ
!	!	!	!	!	!	!	!	!LO:PB:g=original	!	!	!	!	!
=22	=22	=22	=22	=22	=22	=22	=22	=22	=22	=22	=22	=22	=22
8G\L	.	16b\LL	16dd\LL	8G\	-ci-	8.d\	-ci-	8.g\	-ci-	8.b\	-ci	8g/L	8dd\L
.	.	16dd\	16gg\	.	.	.	.	.	.	.	.	.	.
8A\	X 6	16dd\	16gg\	8A\	-pi-	.	.	.	.	.	.	16g/L	16dd\L
.	.	16dd\JJ	16gg\JJ	.	.	16c\	-pi-	16g\	-pi-	16cc\	-pi-	16g/JJ	16dd\JJ
8B\	.	16dd\LL	16gg\LL	8B\	-o	8B\	-o	8g\	-o	8dd\	-o	16g/LL	16dd\LL
.	.	16b\	16gg\	.	.	.	.	.	.	.	.	16g/	16dd\
!	!	!	!	!	!	!LO:LB:g=original	!	!	!	!LO:LB:g=original	!	!	!
8G\J	X 5	16b\	16gg\	8G\	et	8B\	et	8g\	et	(>16dd\LL	et	16g/	16dd\
.	X 6:	16ee\JJ	16gg\JJ	.	.	.	.	.	.	16ee\JJ)	.	16g/JJ	16dd\JJ
!	!	!	!	!LO:SIC:s=nunc	!	!LO:SIC:s=nunc	!	!LO:SIC:s=nunc	!	!	!	!	!
8A\L	X 6	8cc/L	8ff\L	8A\	nu(n)c	8c\	nu(n)c	8f\	nu(n)c	8ff\	nunc,	8cc\L	8ff\L
8G\	x 6	8g/J	8ee\J	8G\	et	8B\	et	8g\	et	8ee\	et	8g\	8ee\J
8A\	x 6	16cc\LL	16ff\LL	(>8A\L	Sem-	(>8c\L	Sem-	(>8f\L	Sem-	(>8ff\L	ſem-	8cc\	8ff\L
.	.	16ff\	16aa\	.	.	.	.	.	.	.	.	.	.
8B\J	X 5	16ee\	16gg\	8B\J)	.	8d\J)	.	8g\J)	.	16ee\L	.	8dd\J	16gg\L
.	.	16dd\JJ	16ff\JJ	.	.	.	.	.	.	16dd\JJ)	.	.	16ff\JJ
!	!	!	!LO:LB:g=original	!	!	!	!	!	!	!	!	!	!
=23	=23	=23	=23	=23	=23	=23	=23	=23	=23	=23	=23	=23	=23
!	!	!	!	!	!	!	!	!	!	!	!	!LO:TX:a:t=P:problem=mixed beam	!LO:TX:a:t=P:problem=mixed beam
8c\L	.	16cc\LL	16ee\LL	8c\	-per,	8d\	-per,	8g\	-per	8ee\	-per	8cc\L	16ee\LL
.	.	16ee\	16gg\	.	.	.	.	.	.	.	.	.	16c/
16c\L	.	16ee\	16gg\	16c\	et	16c\	et	16g\	et	16ee\	et	16c/L	16c/
16c\JJ	.	16ee\JJ	16gg\JJ	16c\	in	16c\	in	16g\	in	16ee\	in	16c/JJ	16c/JJ
!	!	!	!	!LO:SIC:s=Sae-	!	!LO:SIC:s=Sae-	!	!LO:SIC:s=Sae-	!	!	!	!	!
!	!	!	!	!	!	!	!	!	!	!	!	!LO:LB:g=original	!
8c\L	.	16ee\LL	16gg\LL	8c\	Se-	8c\	Sae-	8g\	Se-	8ee\	Se-	16c/LL	16c/LL
.	.	16ee\	16gg\	.	.	.	.	.	.	.	.	16c/	16c/
8c\J	.	16ee\	16gg\	16c\	-cu-	16c\	-cu-	16g\	-cu-	16ee\	-cu-	16c/	16c/
.	.	16ee\JJ	16gg\JJ	16C/	-la	16c\	-la	16g\	-la	16ee\	-la	16c/JJ	16c/JJ
!	!	!	!	!LO:SIC:s=Sae-	!	!LO:SIC:s=Sae-	!	!LO:SIC:s=Sae-	!	!	!	!	!
!	!	!	!	!	!	!	!	!	!	!	!	!	!LO:TX:a:t=P:problem=mixed beam
!	!	!	!	!LO:LB:g=original	!	!	!	!	!	!	!	!LO:TX:a:t=P:problem=mixed beam	!
8F\L	X 6	16ff\LL	16aa\LL	8F\	Se-	8A\	Se-	8f\	Se-	8cc\	Se-	8c/L	8c/L
.	.	16gg\	16bb\	.	.	.	.	.	.	.	.	.	.
8G\	.	16ff\	16aa\	8G\	-cu-	8B\	-cu-	8e\	-cu-	8b\	-cu-	8ee\J	8gg\J
.	.	16ee\JJ	16gg\JJ	.	.	.	.	.	.	.	.	.	.
!	!	!	!	!	!	!	!	!	!	!	!	!	!LO:SIC:s=16ff
8A\	X 6	16ff\LL	16ff\LL	8A\	-lo-	8A\	-lo-	8f\	-lo-	8cc\	-lo-	16cc\LL	16ff#X\LL
.	.	16cc\	16ff\	.	.	.	.	.	.	.	.	16dd\	16gg\
8E\J	X 6	16ee\	16gg\	8E\	-rum	8c\	-rum	8g\	-rum	8dd\	-rum,	16ee\	16aa\
.	.	16ee\JJ	16gg\JJ	.	.	.	.	.	.	.	.	16dd\JJ	16gg\JJ
=24	=24	=24	=24	=24	=24	=24	=24	=24	=24	=24	=24	=24	=24
!LO:TX:a:t=P:problem=mixed beam	!	!	!	!	!	!	!	!	!	!	!	!	!
8F\L	6 5:	16dd\LL	16aa\LL	8F\	a-	8d\	a-	8f\L	a-	8a\	a-	16cc\LL	16ff\LL
.	.	16aa\	16ccc\	.	.	.	.	.	.	.	.	16ee\	16gg\
8D\	.	16aa\	16ccc\	8D/	-men	8d\	-men	8a\J	-men	8cc\	-men	16dd\	16ff\
.	.	16aa\JJ	16ccc\JJ	.	.	.	.	.	.	.	.	16cc\JJ	16ee\JJ
!	!	!	!	!LO:TX:a:t=P:problem=mixed beam	!	!	!	!	!	!	!	!	!
!	!	!	!	!	!	!	!	!	!	!	!	!	!LO:LB:g=original
8G\	5 4	4gg\	16ccc\LL	8G\L	a-	4d\	a-	4g\	a-	(>8cc\L	a-	16cc/LL	8ee\L
.	.	.	16ccc\	.	.	.	.	.	.	.	.	16g/	.
8GG/J	X 3	.	16bb\	8GG/J	.	.	.	.	.	8b\J)	.	16g/	16dd\L
.	.	.	16bb\JJ	.	.	.	.	.	.	.	.	16g/JJ	16cc\JJ
!	!	!	!	!	!	!	!	!LO:LB:g=original	!	!	!	!	!
4C/	.	2r	4ccc\	4C/	-men	4e\	-men	4g\	-men	4cc\	-men	16e/LL	16cc/LL
.	.	.	.	.	.	.	.	.	.	.	.	16e/	16g/
.	.	.	.	.	.	.	.	.	.	.	.	16e/	16g/
.	.	.	.	.	.	.	.	.	.	.	.	16e/JJ	16g/JJ
!	!	!	!	!	!	!	!	!	!	!	!	!LO:N:vis=4	!
4r	.	.	4r	4r	.	4r	.	4r	.	4r	.	8c/	4e/
!	!	!	!	!	!	!	!	!	!	!	!	!LO:N:vis=4	!
.	.	.	.	.	.	.	.	.	.	.	.	8r	.
==;;	==;;	==;;	==;;	==;;	==	==;;	==	==;;	==	==	==	==;;	==;;
*-	*-	*-	*-	*-	*-	*-	*-	*-	*-	*-	*-	*-	*-
!!!system-decoration: [g1][g2][g3]s9
!!!RDF**kern: > = above
!!!RDF**kern: < = below
!!!RDF**kern: | = vertical stroke
!!!EED: Antoni Szymański
!!!EEV: 2020-11-10
!!!ENC: Anastazja Marusiak
!!!END: 2020-05-10
